gama.ui.shared/icons_svg/dark/status/status.progress3.svg

<svg height="24.75" viewBox="-814.872 -3408.886 24.75 24.75" width="24.75" xmlns="http://www.w3.org/2000/svg"><path d="m-805.0818-3389.886c1.9872.775 4.2405.6307 6.1413-.4667 3.2592-1.8817 4.4828-5.9743 2.8114-9.3258-.1095-.2195-.0203-.4865.1994-.5961.2196-.1094.4865-.0204.5961.1994 1.8808 3.7712.5043 8.3752-3.1625 10.4922-2.1269 1.228-4.6476 1.395-6.874.5384l1.2632 2.188c.1227.2126.0499.4843-.1627.6071-.2126.1227-.4844.0499-.6071-.1625l-1.7778-3.0794c-.1227-.2126-.0499-.4844.1627-.6071l3.0792-1.7778c.2126-.1227.4844-.0499.6071.1627s.0499.4844-.1627.6071zm5.1715-13.25c-1.9871-.7752-4.2405-.631-6.1414.4665-3.2696 1.8878-4.4893 5.9992-2.7969 9.3548.1105.2191.0225.4864-.1967.5969-.2192.1106-.4864.0225-.597-.1966-1.9044-3.7759-.5323-8.4011 3.1462-10.5249 2.1271-1.228 4.6478-1.395 6.874-.5382l-1.2632-2.188c-.1227-.2125-.0499-.4845.1627-.6071.2126-.1227.4844-.0499.6071.1626l1.7778 3.0793c.1227.2127.0499.4844-.1627.6071l-3.0792 1.7776c-.21255.123-.4844.05-.6071-.1625s-.0499-.4845.1627-.6071z" fill="#8eed62"/></svg>

<?xml version="1.0" encoding="UTF-8" standalone="no"?>
<!DOCTYPE svg PUBLIC "-//W3C//DTD SVG 1.1//EN" "http://www.w3.org/Graphics/SVG/1.1/DTD/svg11.dtd">
<svg xmlns="http://www.w3.org/2000/svg" xmlns:xl="http://www.w3.org/1999/xlink" version="1.1" xmlns:dc="http://purl.org/dc/elements/1.1/" viewBox="-814.872 -3408.8856 24.75 24.75" width="24.75" height="24.75">
  <defs/>
  <g id="SOURCES" stroke-opacity="1" fill="none" stroke="none" fill-opacity="1" stroke-dasharray="none">
    <title>SOURCES</title>
    <g id="SOURCES_Dark">
      <title>Dark</title>
      <g id="Graphic_11614"/>
      <g id="Graphic_11615">
        <path d="M -805.0818 -3389.886 C -803.0946 -3389.111 -800.8413 -3389.2553 -798.9405 -3390.3527 C -795.6813 -3392.2344 -794.4577 -3396.327 -796.1291 -3399.6785 C -796.2386 -3399.898 -796.1494 -3400.165 -795.9297 -3400.2746 C -795.7101 -3400.384 -795.4432 -3400.295 -795.3336 -3400.0752 C -793.4528 -3396.304 -794.8293 -3391.7 -798.4961 -3389.583 C -800.623 -3388.355 -803.1437 -3388.188 -805.3701 -3389.0446 L -804.1069 -3386.8566 C -803.9842 -3386.644 -804.057 -3386.3723 -804.2696 -3386.2495 C -804.4822 -3386.1268 -804.754 -3386.1996 -804.8767 -3386.412 L -806.6545 -3389.4914 C -806.7772 -3389.704 -806.7044 -3389.9758 -806.4918 -3390.0985 L -803.4126 -3391.8763 C -803.2 -3391.999 -802.9282 -3391.9262 -802.8055 -3391.7136 C -802.6828 -3391.501 -802.7556 -3391.2292 -802.9682 -3391.1065 L -805.0818 -3389.886 Z M -799.9103 -3403.136 C -801.8974 -3403.9112 -804.1508 -3403.767 -806.0517 -3402.6695 C -809.3213 -3400.7817 -810.541 -3396.6703 -808.8486 -3393.3147 C -808.7381 -3393.0956 -808.8261 -3392.8283 -809.0453 -3392.7178 C -809.2645 -3392.6072 -809.5317 -3392.6953 -809.6423 -3392.9144 C -811.5467 -3396.6903 -810.1746 -3401.3155 -806.4961 -3403.4393 C -804.369 -3404.6673 -801.8483 -3404.8343 -799.6221 -3403.9775 L -800.8853 -3406.1655 C -801.008 -3406.378 -800.9352 -3406.65 -800.7226 -3406.7726 C -800.51 -3406.8953 -800.2382 -3406.8225 -800.1155 -3406.61 L -798.3377 -3403.5307 C -798.215 -3403.318 -798.2878 -3403.0463 -798.5004 -3402.9236 L -801.5796 -3401.146 C -801.79215 -3401.023 -802.064 -3401.096 -802.1867 -3401.3085 C -802.3094 -3401.521 -802.2366 -3401.793 -802.024 -3401.9156 Z" fill="#8eed62"/>
      </g>
    </g>
  </g>
</svg>
